logo/codeclimate.svg

<?xml version="1.0" encoding="UTF-8"?>
<svg width="512px" height="57px" viewBox="0 0 512 57" version="1.1" xmlns="http://www.w3.org/2000/svg" preserveAspectRatio="xMidYMid">
    <title>Code Climate</title>
    <g>
        <path d="M145.905202,11.5421965 C151.528324,11.5421965 155.375723,13.3179191 158.927168,16.5734104 C159.519075,17.1653179 159.519075,17.4612717 158.927168,17.7572254 L154.783815,22.1965318 C154.487861,22.4924855 153.895954,22.4924855 153.6,22.1965318 C151.528324,20.4208092 148.86474,19.2369942 146.49711,19.2369942 C140.282081,19.2369942 135.842775,24.2682081 135.842775,30.483237 C135.842775,36.6982659 140.282081,41.7294798 146.793064,41.7294798 C149.456647,41.7294798 152.120231,40.8416185 153.895954,39.065896 C154.191908,38.7699422 154.783815,38.7699422 155.079769,39.065896 L159.223121,43.5052023 C159.519075,43.8011561 159.519075,44.3930636 159.223121,44.6890173 C155.671676,48.2404624 150.640462,50.016185 145.905202,50.016185 C134.954913,50.016185 125.780347,41.433526 125.780347,30.1872832 C125.780347,18.9410405 135.250867,11.5421965 145.905202,11.5421965 Z M182.899422,42.617341 C189.114451,42.617341 193.849711,37.5861272 193.849711,31.667052 C193.849711,25.4520231 188.818497,20.716763 182.899422,20.716763 C176.980347,20.716763 171.949133,25.7479769 171.949133,31.667052 C171.949133,37.5861272 176.980347,42.617341 182.899422,42.617341 Z M182.899422,11.5421965 C193.849711,11.5421965 203.024277,20.4208092 203.024277,31.667052 C203.024277,42.9132948 194.441618,51.4959538 182.899422,51.4959538 C171.357225,51.4959538 163.07052,42.9132948 163.07052,31.667052 C163.07052,20.4208092 171.949133,11.5421965 182.899422,11.5421965 Z M223.149133,42.617341 C229.364162,42.617341 233.803468,37.8820809 233.803468,31.3710983 C233.803468,25.1560694 229.364162,20.1248555 223.149133,20.1248555 L217.821965,20.1248555 L217.821965,42.0254335 L223.149133,42.617341 Z M208.943353,13.3179191 C208.943353,12.7260116 209.53526,12.4300578 209.831214,12.4300578 L223.149133,12.4300578 C233.803468,12.4300578 242.386127,21.0127168 242.386127,31.3710983 C242.386127,42.0254335 233.803468,50.6080925 223.149133,50.6080925 L209.831214,50.6080925 C209.239306,50.6080925 208.943353,50.016185 208.943353,49.7202312 L208.943353,13.3179191 Z M249.489017,13.3179191 C249.489017,12.7260116 250.080925,12.4300578 250.376879,12.4300578 L273.165318,12.4300578 C273.757225,12.4300578 274.053179,13.0219653 274.053179,13.3179191 L274.053179,19.2369942 C274.053179,19.8289017 273.461272,20.1248555 273.165318,20.1248555 L258.071676,20.1248555 L258.071676,27.2277457 L270.501734,27.2277457 C271.093642,27.2277457 271.389595,27.8196532 271.389595,28.1156069 L271.389595,34.0346821 C271.389595,34.6265896 270.797688,34.9225434 270.501734,34.9225434 L258.071676,34.9225434 L258.071676,42.3213873 L273.165318,42.3213873 C273.757225,42.3213873 274.053179,42.9132948 274.053179,43.2092486 L274.053179,49.1283237 C274.053179,49.7202312 273.461272,50.016185 273.165318,50.016185 L250.376879,50.016185 C249.784971,50.016185 249.489017,49.4242775 249.489017,49.1283237 L249.489017,13.3179191 Z" fill="#2B2B2B"></path>
        <path d="M310.751445,11.5421965 C316.374566,11.5421965 320.221965,13.3179191 323.77341,16.5734104 C324.365318,17.1653179 324.365318,17.4612717 323.77341,17.7572254 L319.630058,22.1965318 C319.334104,22.4924855 318.742197,22.4924855 318.446243,22.1965318 C316.374566,20.4208092 313.710983,19.2369942 311.343353,19.2369942 C305.128324,19.2369942 300.689017,24.2682081 300.689017,30.483237 C300.689017,36.6982659 304.83237,42.0254335 311.343353,42.0254335 C314.006936,42.0254335 316.67052,41.1375723 318.446243,39.3618497 C318.742197,39.065896 319.334104,39.065896 319.630058,39.3618497 L323.77341,43.8011561 C324.069364,44.0971098 324.069364,44.6890173 323.77341,44.9849711 C320.221965,48.5364162 315.190751,50.3121387 310.455491,50.3121387 C299.505202,50.3121387 290.330636,41.7294798 290.330636,30.483237 C290.330636,19.2369942 299.801156,11.5421965 310.751445,11.5421965 Z M330.876301,13.3179191 C330.876301,12.7260116 331.468208,12.4300578 332.060116,12.4300578 L338.571098,12.4300578 C339.163006,12.4300578 339.45896,13.0219653 339.45896,13.3179191 L339.45896,42.9132948 L352.480925,42.9132948 C353.072832,42.9132948 353.368786,43.5052023 353.368786,43.8011561 L353.368786,49.4242775 C353.368786,50.016185 352.776879,50.3121387 352.480925,50.3121387 L331.764162,50.3121387 C331.172254,50.3121387 330.876301,49.7202312 330.876301,49.4242775 L330.876301,13.3179191 Z M358.991908,13.3179191 C358.991908,12.7260116 359.583815,12.4300578 359.879769,12.4300578 L366.686705,12.4300578 C367.278613,12.4300578 367.574566,13.0219653 367.574566,13.3179191 L367.574566,49.7202312 C367.574566,50.3121387 366.982659,50.6080925 366.686705,50.6080925 L359.879769,50.6080925 C359.287861,50.6080925 358.991908,50.016185 358.991908,49.7202312 L358.991908,13.3179191 Z M380.596532,12.4300578 C380.596532,11.8381503 381.188439,11.5421965 381.484393,11.5421965 L382.372254,11.5421965 C382.668208,11.5421965 383.260116,11.8381503 383.260116,12.134104 L395.690173,36.1063584 L408.120231,12.134104 C408.416185,11.8381503 408.712139,11.5421965 409.008092,11.5421965 L409.895954,11.5421965 C410.487861,11.5421965 410.783815,11.8381503 410.783815,12.4300578 L416.998844,49.4242775 C416.998844,50.3121387 416.70289,50.3121387 416.110983,50.3121387 L409.6,50.3121387 C409.008092,50.3121387 408.712139,49.7202312 408.712139,49.4242775 L406.048555,32.5549133 L396.873988,50.6080925 C396.578035,50.9040462 396.282081,51.2 395.986127,51.2 L395.098266,51.2 C394.802312,51.2 394.210405,50.9040462 394.210405,50.6080925 L385.035838,32.5549133 L382.372254,49.7202312 C382.372254,50.3121387 381.780347,50.6080925 381.484393,50.6080925 L374.97341,50.6080925 C374.381503,50.6080925 374.085549,50.016185 374.085549,49.7202312 L380.596532,12.4300578 Z M438.603468,11.8381503 C438.899422,11.8381503 439.491329,12.134104 439.491329,12.4300578 L456.656647,49.4242775 C456.952601,50.3121387 456.656647,50.6080925 455.768786,50.6080925 L449.553757,50.6080925 C448.665896,50.6080925 448.369942,50.3121387 447.482081,49.4242775 L445.410405,45.2809249 L430.908671,45.2809249 L428.836994,49.7202312 C428.54104,50.3121387 427.949133,50.9040462 426.765318,50.9040462 L420.550289,50.9040462 C419.958382,50.6080925 419.958382,50.016185 419.958382,49.1283237 L437.123699,12.4300578 C437.419653,12.134104 437.715607,11.8381503 438.011561,11.8381503 L438.603468,11.8381503 Z M480.628902,12.4300578 C481.220809,12.4300578 481.516763,13.0219653 481.516763,13.3179191 L481.516763,19.2369942 C481.516763,19.8289017 480.924855,20.1248555 480.628902,20.1248555 L472.63815,20.1248555 L472.63815,49.4242775 C472.63815,50.016185 472.046243,50.3121387 471.750289,50.3121387 L465.239306,50.3121387 C464.647399,50.3121387 464.351445,49.7202312 464.351445,49.4242775 L464.351445,20.1248555 L456.360694,20.1248555 C455.768786,20.1248555 455.472832,19.532948 455.472832,19.2369942 L455.472832,13.3179191 C455.472832,12.7260116 456.06474,12.4300578 456.360694,12.4300578 L480.628902,12.4300578 Z M438.603468,28.4115607 L434.460116,37.2901734 L442.746821,37.2901734 L438.603468,28.4115607 Z M487.435838,13.3179191 C487.435838,12.7260116 488.027746,12.4300578 488.323699,12.4300578 L511.112139,12.4300578 C511.704046,12.4300578 512,13.0219653 512,13.3179191 L512,19.2369942 C512,19.8289017 511.408092,20.1248555 511.112139,20.1248555 L496.018497,20.1248555 L496.018497,27.2277457 L508.448555,27.2277457 C509.040462,27.2277457 509.336416,27.8196532 509.336416,28.1156069 L509.336416,34.0346821 C509.336416,34.6265896 508.744509,34.9225434 508.448555,34.9225434 L496.018497,34.9225434 L496.018497,42.3213873 L511.112139,42.3213873 C511.704046,42.3213873 512,42.9132948 512,43.2092486 L512,49.1283237 C512,49.7202312 511.408092,50.016185 511.112139,50.016185 L488.323699,50.016185 C487.731792,50.016185 487.435838,49.4242775 487.435838,49.1283237 L487.435838,13.3179191 Z" fill="#2B2B2B"></path>
        <path d="M34.0346821,11.3524014 L45.5768786,22.8945979 L57.1190751,34.7327482 L68.0693642,45.6830372 L56.5271676,56.92928 L45.5768786,46.2749447 L34.0346821,34.7327482 L30.7791908,37.396332 L15.9815029,52.4899736 L11.5421965,56.92928 L0,45.6830372 L4.1433526,40.6518234 L34.0346821,11.3524014 Z M68.6612717,0 L102.695954,33.7387283 L91.1537572,45.5768786 L68.6612717,23.0843931 L60.6705202,31.0751445 L49.1283237,19.532948 L68.6612717,0 Z" fill="#2B2B2B"></path>
    </g>
</svg>

<svg viewBox="0 0 512 57" xmlns="http://www.w3.org/2000/svg"><g fill="#2B2B2B"><path d="M145.9 11.54c5.62 0 9.47 1.77 13.02 5.03 .59.59.59.88 0 1.18l-4.15 4.43c-.3.29-.89.29-1.19 0 -2.08-1.78-4.74-2.96-7.11-2.96 -6.22 0-10.66 5.03-10.66 11.24s4.43 11.24 10.95 11.24c2.66 0 5.32-.89 7.1-2.67 .29-.3.88-.3 1.18 0l4.14 4.43c.29.29.29.88 0 1.18 -3.56 3.55-8.59 5.32-13.32 5.32 -10.96 0-20.13-8.59-20.13-19.83 0-11.25 9.47-18.65 20.12-18.65Zm36.99 31.07c6.21 0 10.95-5.04 10.95-10.96 0-6.22-5.04-10.96-10.96-10.96 -5.92 0-10.96 5.03-10.96 10.95 0 5.91 5.03 10.95 10.95 10.95Zm0-31.08c10.95 0 20.12 8.87 20.12 20.12 0 11.24-8.59 19.82-20.13 19.82 -11.55 0-19.83-8.59-19.83-19.83 0-11.25 8.87-20.13 19.82-20.13Zm40.24 31.07c6.21 0 10.65-4.74 10.65-11.25 0-6.22-4.44-11.25-10.66-11.25h-5.33V42l5.32.59Zm-14.21-29.3c0-.6.59-.89.88-.89h13.31c10.65 0 19.23 8.58 19.23 18.94 0 10.65-8.59 19.23-19.24 19.23h-13.32c-.6 0-.89-.6-.89-.89V13.28Zm40.54 0c0-.6.59-.89.88-.89h22.78c.59 0 .88.59.88.88v5.91c0 .59-.6.88-.89.88h-15.1v7.1h12.43c.59 0 .88.59.88.88v5.91c0 .59-.6.88-.89.88h-12.44v7.39h15.09c.59 0 .88.59.88.88v5.91c0 .59-.6.88-.89.88h-22.79c-.6 0-.89-.6-.89-.89V13.2Z"/><path d="M310.75 11.54c5.62 0 9.47 1.77 13.02 5.03 .59.59.59.88 0 1.18l-4.15 4.43c-.3.29-.89.29-1.19 0 -2.08-1.78-4.74-2.96-7.11-2.96 -6.22 0-10.66 5.03-10.66 11.24s4.14 11.54 10.65 11.54c2.66 0 5.32-.89 7.1-2.67 .29-.3.88-.3 1.18 0l4.14 4.43c.29.29.29.88 0 1.18 -3.56 3.55-8.59 5.32-13.32 5.32 -10.96 0-20.13-8.59-20.13-19.83 0-11.25 9.47-18.95 20.42-18.95Zm20.12 1.77c0-.6.59-.89 1.18-.89h6.51c.59 0 .88.59.88.88v29.59h13.02c.59 0 .88.59.88.88v5.62c0 .59-.6.88-.89.88h-20.72c-.6 0-.89-.6-.89-.89V13.27Zm28.11 0c0-.6.59-.89.88-.89h6.8c.59 0 .88.59.88.88v36.4c0 .59-.6.88-.89.88h-6.81c-.6 0-.89-.6-.89-.89V13.28Zm21.6-.89c0-.6.59-.89.88-.89h.88c.29 0 .88.29.88.59l12.43 23.97 12.43-23.98c.29-.3.59-.6.88-.6h.88c.59 0 .88.29.88.88l6.21 36.99c0 .88-.3.88-.89.88h-6.52c-.6 0-.89-.6-.89-.89l-2.67-16.87 -9.18 18.05c-.3.29-.6.59-.89.59H395c-.3 0-.89-.3-.89-.6l-9.18-18.06 -2.67 17.16c0 .59-.6.88-.89.88h-6.52c-.6 0-.89-.6-.89-.89l6.51-37.3Zm58-.6c.29 0 .88.29.88.59l17.16 36.99c.29.88 0 1.18-.89 1.18h-6.22c-.89 0-1.19-.3-2.08-1.19l-2.08-4.15h-14.51l-2.08 4.43c-.3.59-.89 1.18-2.08 1.18h-6.22c-.6-.3-.6-.89-.6-1.78l17.16-36.7c.29-.3.59-.6.88-.6h.59Zm42.02.59c.59 0 .88.59.88.88v5.91c0 .59-.6.88-.89.88h-8v29.29c0 .59-.6.88-.89.88h-6.52c-.6 0-.89-.6-.89-.89v-29.3h-8c-.6 0-.89-.6-.89-.89v-5.92c0-.6.59-.89.88-.89h24.26Zm-42.03 15.98l-4.15 8.87h8.28l-4.15-8.88Zm48.83-15.1c0-.6.59-.89.88-.89h22.78c.59 0 .88.59.88.88v5.91c0 .59-.6.88-.89.88h-15.1v7.1h12.43c.59 0 .88.59.88.88v5.91c0 .59-.6.88-.89.88h-12.44v7.39h15.09c.59 0 .88.59.88.88v5.91c0 .59-.6.88-.89.88h-22.79c-.6 0-.89-.6-.89-.89V13.19Z"/><path d="M34.03 11.35l11.54 11.54 11.54 11.83 10.95 10.95 -11.55 11.24 -10.96-10.66L34 34.7l-3.26 2.66 -14.8 15.09 -4.44 4.43L-.05 45.63l4.14-5.04 29.89-29.3ZM68.65-.01l34.03 33.73 -11.55 11.83 -22.5-22.5 -8 7.99 -11.55-11.55L68.61-.05Z"/></g></svg>
